packages/components/bolt-icons/src/svgs/product/services/integration.svg

<?xml version="1.0" encoding="UTF-8"?>
<svg width="32px" height="32px" viewBox="0 0 32 32" version="1.1" xmlns="http://www.w3.org/2000/svg" xmlns:xlink="http://www.w3.org/1999/xlink">
    <!-- Generator: Sketch 49.3 (51167) - http://www.bohemiancoding.com/sketch -->
    <title>brand icons/community/brand-integration</title>
    <desc>Created with Sketch.</desc>
    <defs>
        <path d="M30.0003,12 L8.0003,12 L8.0003,10 C8.0003,8.896 8.8963,8.001 10.0003,8.001 L28.0003,8.001 C29.1043,8.001 30.0003,8.896 30.0003,10 L30.0003,12 Z M30.0003,28 C30.0003,29.104 29.1043,30 28.0003,30 L10.0003,30 C8.8963,30 8.0003,29.104 8.0003,28 L8.0003,14 L30.0003,14 L30.0003,28 Z M28.0003,6 L10.0003,6 C7.7913,6 6.0003,7.791 6.0003,10 L6.0003,28 C6.0003,30.209 7.7913,32 10.0003,32 L28.0003,32 C30.2093,32 32.0003,30.209 32.0003,28 L32.0003,10 C32.0003,7.791 30.2093,6 28.0003,6 Z M4.0003,2.001 C2.8963,2.001 2.0003,2.896 2.0003,4 L2.0003,6 L4.0003,6 L4.0003,8 L2.0003,8 L2.0003,22 C2.0003,23.104 2.8963,24 4.0003,24 L4.0003,26 C1.7913,26 0.0003,24.21 0.0003,22 L0.0003,4 C0.0003,1.791 1.7913,0 4.0003,0 L22.0003,0 C24.2103,0 26.0003,1.791 26.0003,4 L24.0003,4 C24.0003,2.896 23.1043,2.001 22.0003,2.001 L4.0003,2.001 Z M24.5003,20.9843 L24.5003,22.9843 L20.5003,22.9843 L20.5003,26.9843 L18.5003,26.9843 L18.5003,22.9843 L14.5003,22.9843 L14.5003,20.9843 L18.5003,20.9843 L18.5003,16.9843 L20.5003,16.9843 L20.5003,20.9843 L24.5003,20.9843 Z" id="path-1"></path>
    </defs>
    <g id="brand-icons/community/brand-integration" stroke="none" stroke-width="1" fill="none" fill-rule="evenodd">
        <mask id="mask-2" fill="white">
            <use xlink:href="#path-1"></use>
        </mask>
        <g id="Mask"></g>
        <g id="z_atom/Icon-color/brand-black" mask="url(#mask-2)" fill="#2D2E33">
            <rect id="Rectangle-15" x="0" y="0" width="32" height="32"></rect>
        </g>
    </g>
</svg>

<svg id="a18b306d-d9fc-4ac8-a5e5-b4965ff1385c" data-name="Layer 1" xmlns="http://www.w3.org/2000/svg" viewBox="0 0 32 32"><title>integration</title><path id="baacb39b-3a30-4a40-a6c0-3e530aeef385" data-name="path-1" d="M30,12H8V10a2,2,0,0,1,2-2H28a2,2,0,0,1,2,2Zm0,16a2,2,0,0,1-2,2H10a2,2,0,0,1-2-2V14H30ZM28,6H10a4,4,0,0,0-4,4V28a4,4,0,0,0,4,4H28a4,4,0,0,0,4-4V10A4,4,0,0,0,28,6ZM4,2A2,2,0,0,0,2,4V6H4V8H2V22a2,2,0,0,0,2,2v2a4,4,0,0,1-4-4V4A4,4,0,0,1,4,0H22a4,4,0,0,1,4,4H24a2,2,0,0,0-2-2ZM24.5,21v2h-4v4h-2V23h-4V21h4V17h2v4Z" fill="#1f2555" fill-rule="evenodd"/></svg>
